X:1
T:Estilo Popular Argentino
T:Estilo Popular Argentino
T: Por Miguel Llobet
T:Armonizado para guitara según la versión de Pedro M. Quijano, y escrito exclusivamente para "La Guitarra".
T:by IMSLP - Pubblico dominio
T:by IMSLP - Pubblico dominio
C:Miguel Llobet
Z:by IMSLP - Pubblico dominio
%%score ( 1 2 3 )
L:1/8
Q:1/4=80
M:2/4
K:A
V:1 treble-8 nm="Classical Guitar" snm="Guit."
V:2 treble-8 
V:3 treble-8 
V:1
 (!1!F,/!3!G,/) |"^C2 - - - - - - -" A,/[Ac]/E/[Ac]/ A,/[Ac]/E/[Ac]/ | %2
w: ||
 B,/!3!!2![Fd]/!4!D/[Fd]/ B,/[Fd]/D/[Fd]/ | C/[GB]/!3!^E/[GB]/ C/[GB]/E/[GB]/ | %4
w: ||
"^C2- - - - - -" F,/C/F/A/ [cf]2 |"^C2 - - - - - - -" A,/[Ac]/E/[Ac]/ A,/[Ac]/E/[Ac]/ | %6
w: ||
 B,/[Fd]/D/[Fd]/ B,/[Fd]/D/[Fd]/ |"^C4°- - - - - - - - -" C/[B^e]/G/[Be]/ D/[Ae]/G/[Ae]/ | %8
w: ||
"^C2- - - - - -" F,/C/F/A/ [cf]2 | A,/[Ac]/E/[Ac]/ A,/[Ac]/E/[Ac]/ | %10
w: ||
 A,/[Ac]/E/[Ac]/ A,/[Ac]/E/[Ac]/ | C/[GB]/^E/[GB]/ C/[GB]/^E/[GB]/ || %12
w: ||
[M:3/4] F,2"^c2- -" !arpeggio!!fermata![CFAcf]2[Q:1/4=60]"^Adagio" z2/3!-(!{/c} !-)!e x4/3!fine! | %13
w: |
 !3!!1![Ace]3 [fa] !fermata!!1![eg]!3!!4![df]/!3!!2![ce]/ x2/3 | %14
w: |
 !4!!2![Bd]2 [Ac]2 z2/3"^C4 - -" !3!!4![GB^e] x5/3 | %15
w: |
"^C2- -" [Acf]2 z2/3 !-(!!3!!2![Bd]!-)!{/c} !4!!3![Ac]!2!c/!-(!c/ x4/3 | %16
w: |
 !fermata!!-)![GB]2"^C2-" !fermata![FA]2 z2/3!-(!{/c} !-)!e x4/3 | %17
w: |
 [Ace]3 !-(!!4!!1![fa]!-)!{g} !4![eg]!3!!4![df]/!3!!2![ce]/ x | %18
w: |
 !2![Bd]2"^C2 -" [Ac]2 z2/3"^C4-" [B^e] x5/3 | %19
w: |
 !3!!4![Af]2 z2/3 !4!!-(!!1!!3![FGd]!-)!{/A} !4!!3![Ac]!2!c/c/ x4/3 | %20
w: |
 !fermata![GB]2 !fermata![FA]2 z4/3 x4/3 || %21
w: |
[M:4/4]"^C2 - - - - - -  \n"[Q:1/4=75]"^Più mosso" z !4!a2 !3!g2 f2 x6 | %22
w: espressivo * *|
 !0!B2{/d} !3!d2 !3!c2 !4!B2 x7/2 |"^C2" c2 a2 g2 f2 x6 | B2{/d} d2 c2 B2 x3 | %25
w: |||
"^C2" c2 a2 g2 f2 x2 | B2{/d} d2 c2 B2 x3 || %27
w: ||
[M:3/4][Q:1/4=60]"^Adagio""^C2 - - -" F,2 [Acf]2 z!-(!{/c} !-)!e | %28
w: |
 [Ace]3 [gb] !fermata!!2!!1![eg]!3!!2![ce]/!3!!2![Bd]/ |"^C2" [Ac]2 [EA]2 z"^C4" [GB^e] | %30
w: ||
"^C2" [Acf]2 z !-(![Bd]!-)!{/c} [Ac]c/!-(!c/ | %31
w: |
 !fermata!!-)![^EGB]2"^C2" !fermata![CFA]2 z2!D.C.! |] %32
w: |
V:2
 x | A,E A,E | !1!B,D B,D | !4!C^E CE | F,2 z (F,/G,/) | A,E A,E | B,D B,D | CG DG | %8
 F,2 z (F,/G,/) | A,E A,E | A,E A,E | C^E CE ||[M:3/4] x5/3 F,2 !arpeggio!F,2 z4/3 | x2 A,2 x8/3 | %14
 x5/3 G,2 A,2 z2/3 G, | x5/3 F,2 z2/3 !-(!B,!-)!{/C} C z2/3 | %16
 x5/3 !fermata!!4!!3![C^E]2 !fermata![F,C]2 z4/3 | x2 A,2 z4/3 !1!E z2/3 | x5/3 !1!^E2 F2 z2/3 C | %19
 x5/3 !1!D2 z2/3 !2!B, !1!C z2/3 | x4/3 !fermata![C^E]2 !fermata![F,C]2 z4/3 || %21
[M:4/4] x3 z/ [Ac] z/ [Ac] z/ [Ac] z/ [Ac] x4 | %22
 x4 z/ !-(!!1![^EG] z/ !0!!1![B^e] z/ !0!!2![Be] z/ !0!!2![Be] x3/2 | %23
 x4 z/ [FA] z/ [Ac] z/ [Ac] z/ [Ac] x4 | x4 z/ !-(![^EG] z/ [B^e] z/ [Be] z/ [Be] x | %25
 x4 z/ [FA] z/"_dim." [Ac] z/ [Ac] z/ [Ac] | x4 z/ !-(![^EG] z/ [B^e] z/ [Be] z/ [Be] x || %27
[M:3/4] F,4 z2 | A,2 z2 z2 | A,2 C2 z G, | F,2 z !-(!B,!-)!{/C} C z | %31
 !fermata!C2 !fermata!F,2 z2 |] %32
V:3
 x | x4 | x4 | x4 | x4 | x4 | x4 | x4 | x4 | x4 | x4 | x4 ||[M:3/4] x7 | x20/3 | x22/3 | x7 | x7 | %17
w: |||||||||||||||||
 x7 | x22/3 | x7 | x20/3 ||[M:4/4] x5 F,8 | x6 !2!F,3 x5/2 | x6 F,8 | x6 F,2 x3 | x10 | %26
w: |||||||||
 x6 F,2 z z z ||[M:3/4] x2 F2 x2 | x6 | x6 | x6 | x6 |] %32
w: e~\-~rall~\-~\-~\-~||||||

